X: 344
T:Leaping Priest, The
M:6/8
L:1/8
Q:127
C:Craig
R:Jig
N:Not traditional
Z:Craig Herrity
K:G
~G3 Bdg|~G3 Bdg|~b3 c'ag|fdc AFD|~G3 Bdg|~B3 dgb|d'c'b c'af|agf g3:||:
eBe efg|fd^c def|~g3 gab|afe d2f|eBe efg|afd fga|b=c'd' c'af|1agf g2f:|2
agf
gdB||

